packages/components/icon/src/assets/icons/add.svg

<svg width="24" height="24" viewBox="0 0 24 24" fill="none" xmlns="http://www.w3.org/2000/svg">
<path fill-rule="evenodd" clip-rule="evenodd" d="M11.5 4C10.9477 4 10.5 4.44772 10.5 5V10.5H5C4.44772 10.5 4 10.9477 4 11.5L4 12.5C4 13.0523 4.44772 13.5 5 13.5H10.5V19C10.5 19.5523 10.9477 20 11.5 20H12.5C13.0523 20 13.5 19.5523 13.5 19V13.5H19C19.5523 13.5 20 13.0523 20 12.5V11.5C20 10.9477 19.5523 10.5 19 10.5H13.5V5C13.5 4.44772 13.0523 4 12.5 4H11.5Z" fill="currentColor"/>
</svg>

<svg viewBox="0 0 24 24" fill="none" xmlns="http://www.w3.org/2000/svg"><path fill-rule="evenodd" clip-rule="evenodd" d="M11.5 4a1 1 0 0 0-1 1v5.5H5a1 1 0 0 0-1 1v1a1 1 0 0 0 1 1h5.5V19a1 1 0 0 0 1 1h1a1 1 0 0 0 1-1v-5.5H19a1 1 0 0 0 1-1v-1a1 1 0 0 0-1-1h-5.5V5a1 1 0 0 0-1-1h-1Z" fill="currentColor"/></svg>
